!!!!SEGMENT: T208B_Sch-w29p14m174-180.krn
!!!COM: Schoenberg [Schönberg], Arnold (Franz Walter)
!!!OTL: I: Moderato
!!!AGN: Instrumental
!!!AGN-sub: Chamber
!!!CNT: Austrian
!!!ODT: 1927
!!!OPR: String Quartet No. 3, op. 30
!!!filename: T208B_Sch-w29p14m174-180.krn
**kern	**dynam	**kern	**dynam	**kern	**dynam	**kern	**dynam
*grp:A	*	*grp:B	*	*grp:B	*	*grp:B	*
*part4	*	*part3	*	*part2	*	*part1	*
*staff4	*	*staff3	*	*staff2	*	*staff1	*
*ICstr	*	*ICstr	*	*ICstr	*	*ICstr	*
*Icello	*	*Iviola	*	*Ivioln	*	*Ivioln	*
*I"Violoncello	*	*I"Viola	*	*I"Violin II	*	*I"Violin I	*
*I'Vc.	*	*I'Vla.	*	*I'Vln. II	*	*I'Vln. I	*
*clefF4	*	*clefC3	*	*clefG2	*	*clefG2	*
*k[]	*	*k[]	*	*k[]	*	*k[]	*
*C:	*	*C:	*	*C:	*	*C:	*
*M4/4	*	*M4/4	*	*M4/4	*	*M4/4	*
*met(c|)	*	*met(c|)	*	*met(c|)	*	*met(c|)	*
!!LO:REH:t=174
=174	=174	=174	=174	=174	=174	=174	=174
!!LO:TX:B:t=etwas ruhiger, molto cantabile
!!LO:TX:B:t=a tempo
!	!	!	!	!	!LO:DY:ed=brack	!LO:TX:t=[[half]=100]	!
4r	.	1r	.	(8f#XL	p	(8ddnL	p
.	.	.	.	8d#X'>)	.	8bbn)	.
*haupt	*	*	*	*	*	*	*
!LO:TX:t=H	!	!	!	!	!	!	!
{(4GGn	p	.	.	(8d#	.	(8bb	.
.	.	.	.	8an'>J)	.	8ccnJ)	.
[2En	.	.	.	(8aL	.	(8ccL	.
.	.	.	.	8B-X'>)	<	8ffn)	<
.	.	.	.	(8B-	.	(8ff	.
.	.	.	.	8d-X'>J)	.	8a-XJ)	.
.	.	.	.	.	[	.	[
!!LO:REH:t=175
=175	=175	=175	=175	=175	=175	=175	=175
4E])	.	1r	.	4d-X~>	>	4a-X~>	>
(2D#X	.	.	.	(8cnL	]	(8ffnL/	]
.	.	.	.	8bn)/	.	8a-X)	.
.	.	.	.	(8b/	.	(8a-	.
.	<	.	.	8f#XJ)	.	8dnJ)	.
[4An	.	.	.	(8f#L	<	(8dL	.
.	.	.	.	8G)	.	8cc#X)/	.
.	[	.	.	.	[	.	.
!!LO:REH:t=176
=176	=176	=176	=176	=176	=176	=176	=176
4A])	>	1r	.	(8G	>	(8cc#X/	.
.	.	.	.	8enJ)	]	8bnJ)/	.
(4cn	]	.	.	(8anL	.	(8bnL	.
.	<	.	.	8e-X')	.	8gg#X')	.
2FFn)	[ >	.	.	(8e-	.	(8gg#	.
.	]	.	.	8b-X'J)/	.	8gn'J)\	.
.	.	.	.	(8b-L/	<	(8gL	<
.	.	.	.	8f#X')	.	8cc#X)/	.
!!LO:REH:t=177
=177	=177	=177	=177	=177	=177	=177	=177
2r	.	1r	.	(8f#X	.	(8cc#X/	.
.	.	.	.	.	[	.	.
.	.	.	.	8ddn'J)/	>	8enJ)	[
.	.	.	.	4dd~	.	4e~>	.
*clefC4	*	*	*	*	*	*	*
!	!LO:HP:a	!	!	!	!	!	!
(4f#X	<	.	.	(8GL	]	(8dddnL	<
!	!LO:HP:a	!	!	!	!	!	!
.	[ >	.	.	.	<	.	.
.	]	.	.	8b-X'>)/	.	8gg#X')	.
.	.	.	.	.	.	.	.
[4Bn	.	.	.	(8b-/	.	(8gg#	.
.	.	.	.	8en'>J)	.	8ccc#X'J)	.
.	.	.	.	.	[	.	[
!!LO:REH:t=178
=178	=178	=178	=178	=178	=178	=178	=178
2B])	.	1r	.	(8enL/	.	(8ccc#XL	>
.	.	.	.	8dd#X')	.	8ffn')	.
.	.	.	.	(8dd#	.	(8ff	.
.	.	.	.	8ccn'J)	.	8aan'J)	]
(2b-X	.	.	.	(8BnL	<	(8ee-XL	<
.	.	.	.	8dn')	.	8g-X'<)	.
.	<	.	.	(8d	.	(8g-	.
.	.	.	.	8A-X'J)	.	8ffn'<J)	.
*clefF4	*	*	*	*	*	*	*
!!LO:REH:t=179
=179	=179	=179	=179	=179	=179	=179	=179
.	[	.	.	.	.	.	.
2D-X)	>	1r	.	(8A-XL	.	(8ffL	.
.	]	.	.	8gn'>)	.	8ccn'<)	.
.	.	.	.	(8g	.	(8cc	.
.	.	.	.	8en'>J)	[	8aan'<J)	[
(4A-X	.	.	.	/(8gL	.	(8dd-XL	.
.	<	.	.	8en')	.	8bb-X')	.
[4dn	[ >	.	.	(8e	.	(8bb-	.
.	]	.	.	8ffn'J)	.	8an'<J)	.
!!LO:REH:t=180
=180	=180	=180	=180	=180	=180	=180	=180
2d])	.	2r	.	(8ffnL	>	(8anL	.
.	.	.	.	.	.	.	>
.	.	.	.	8ccn')	.	8ddd#X')	.
.	.	.	.	(8cc	.	(8ddd#	.
.	.	.	.	8bbn'J)	.	8ff#X'J)	.
.	.	.	.	.	] mf	.	] mf
2r}	.	(8FL	mf <	(8ggnL	<	(8bb-XL	<
.	.	8cn	.	8een	.	8dd-X	.
.	.	8Bn	.	8an	.	8dn	.
.	.	8f#XJ)	[	8e-XJ)	[	8A-XJ)	[
*Xhaupt	*	*	*	*	*	*	*
=	=	=	=	=	=	=	=
*-	*-	*-	*-	*-	*-	*-	*-
!!!system-decoration: [(s1,s2,s3,s4)]
!!!RDF**kern: < = below
!!!RDF**kern: > = above
!!!EED:Jason Lee
!!!EEV:2021/10/15
!!!EED2: Daniel Wright
!!!Suter_Work_ID: Sch-29
!!!Suter_Example_Number: 208B
!!!Suter_Example_ID: Sch-29/14/174-180
!!!Premiere_Location: Vienna,Austria
!!!Other_Tsigs: none
!!!Full_Unit_Duration: 8:56
!!!First_Publication_Year: 1927
!!!First_Public_Performance_Year: 1927
!!!Example_Total_Measures: 7
!!!Example_Timestamp_Duration: 11
!!!Example_Start_Tsig_Type: simple duple
!!!Example_Start_Tsig_Mean_Beat_Rate: 100
!!!Example_Start_Tsig_Beat_Rate: 100
!!!Example_Start_Tsig_Beat: half
!!!Example_Start_Tsig: 2/2
!!!Example_Start_Timestamp: 4:08
!!!Example_Start_Tempo_Expression: a tempo, etwas ruhiger, molto cantabile
!!!Example_Start_Notated_Beat_Rate: [100]
!!!Example_Start_Notated_Beat: [half]
!!!Example_Start_Measure: 174
!!!Example_Metadata_Validated: Y
!!!Example_End_Timestamp: 4:19
!!!Example_End_Measure: 180
!!!Example_Dataset: T
!!!Editorial_Comments: Example Start Notated Beat and Example Start Notated Beat Rate [half=100] based on most recent notated beat rate (SWFU, m. 1). Note that Example Start Tempo Expression [a tempo, etwas ruhiger, molto cantabile] refers to Full Unit Start Notated Beat Rate [quarter=80].
!!!Death_Place: Los Angeles,United States
!!!Death_Date: 13-Jul-1951
!!!Changing_Tsig: no
!!!Birth_Place: Vienna,Austria
!!!Birth_Date: 13-Sep-1874
!!!Audio_Example_Quarter_Note_Tempo:
!!!Audio_Example_Duration:
!!!EEV2: 2022/03/31
